cssgg/microbit.svg

<svg
  width="24"
  height="24"
  viewBox="0 0 24 24"
  fill="none"
  xmlns="http://www.w3.org/2000/svg"
>
  <path
    d="M7 14C8.10457 14 9 13.1046 9 12C9 10.8954 8.10457 10 7 10C5.89543 10 5 10.8954 5 12C5 13.1046 5.89543 14 7 14Z"
    fill="currentColor"
  />
  <path
    d="M19 12C19 13.1046 18.1046 14 17 14C15.8954 14 15 13.1046 15 12C15 10.8954 15.8954 10 17 10C18.1046 10 19 10.8954 19 12Z"
    fill="currentColor"
  />
  <path
    fill-rule="evenodd"
    clip-rule="evenodd"
    d="M7 5C3.13401 5 0 8.13401 0 12C0 15.866 3.13401 19 7 19H17C20.866 19 24 15.866 24 12C24 8.13401 20.866 5 17 5H7ZM17 8H7C4.79086 8 3 9.79086 3 12C3 14.2091 4.79086 16 7 16H17C19.2091 16 21 14.2091 21 12C21 9.79086 19.2091 8 17 8Z"
    fill="currentColor"
  />
</svg>

<svg viewBox="0 0 24 24" xmlns="http://www.w3.org/2000/svg"><g><path d="M7 14c1.1 0 2-.9 2-2 0-1.11-.9-2-2-2 -1.11 0-2 .89-2 2 0 1.1.89 2 2 2Z"/><path d="M19 12c0 1.1-.9 2-2 2 -1.11 0-2-.9-2-2 0-1.11.89-2 2-2 1.1 0 2 .89 2 2Z"/><path fill-rule="evenodd" d="M7 5c-3.87 0-7 3.13-7 7 0 3.86 3.13 7 7 7h10c3.86 0 7-3.14 7-7 0-3.87-3.14-7-7-7H7Zm10 3H7c-2.21 0-4 1.79-4 4 0 2.2 1.79 4 4 4h10c2.2 0 4-1.8 4-4 0-2.21-1.8-4-4-4Z"/></g></svg>
